flaticon/interaction/list-4.svg

<svg xmlns="http://www.w3.org/2000/svg" width="32" height="32" viewBox="0 0 24 24">
    <path d="M 23.660156 22.582031 L 18.671875 14.035156 C 18.503906 13.742188 18.199219 13.566406 17.859375 13.566406 C 17.519531 13.566406 17.214844 13.742188 17.042969 14.035156 L 12.058594 22.582031 C 11.886719 22.878906 11.882812 23.230469 12.054688 23.527344 C 12.222656 23.824219 12.53125 24 12.871094 24 L 22.847656 24 C 23.1875 24 23.492188 23.824219 23.664062 23.527344 C 23.832031 23.230469 23.832031 22.878906 23.660156 22.582031 Z M 22.933594 23.109375 C 22.921875 23.132812 22.894531 23.15625 22.847656 23.15625 L 12.871094 23.15625 C 12.824219 23.15625 12.796875 23.132812 12.785156 23.109375 C 12.769531 23.085938 12.761719 23.050781 12.785156 23.007812 L 17.773438 14.457031 C 17.796875 14.417969 17.832031 14.40625 17.859375 14.40625 C 17.886719 14.40625 17.921875 14.417969 17.945312 14.457031 L 22.933594 23.007812 C 22.957031 23.050781 22.945312 23.085938 22.933594 23.109375 Z M 22.933594 23.109375"/>
    <path d="M17.894531 16.421875C17.660156 16.421875 17.472656 16.609375 17.472656 16.84375L17.472656 20.210938C17.472656 20.445312 17.660156 20.632812 17.894531 20.632812 18.125 20.632812 18.316406 20.445312 18.316406 20.210938L18.316406 16.84375C18.316406 16.609375 18.128906 16.421875 17.894531 16.421875zM17.59375 21.597656C17.519531 21.675781 17.472656 21.785156 17.472656 21.894531 17.472656 22.003906 17.519531 22.113281 17.59375 22.195312 17.675781 22.273438 17.78125 22.316406 17.894531 22.316406 18.007812 22.316406 18.113281 22.269531 18.191406 22.195312 18.269531 22.113281 18.316406 22.003906 18.316406 21.894531 18.316406 21.785156 18.269531 21.675781 18.191406 21.597656 18.039062 21.441406 17.757812 21.4375 17.59375 21.597656zM11.578125 5.050781C11.347656 5.050781 11.15625 5.242188 11.15625 5.472656 11.15625 5.707031 11.347656 5.894531 11.578125 5.894531L19.15625 5.894531C19.390625 5.894531 19.578125 5.707031 19.578125 5.472656 19.578125 5.242188 19.390625 5.050781 19.15625 5.050781zM19.578125 11.367188C19.578125 11.136719 19.390625 10.949219 19.15625 10.949219L11.578125 10.949219C11.347656 10.949219 11.15625 11.136719 11.15625 11.367188 11.15625 11.601562 11.347656 11.789062 11.578125 11.789062L19.15625 11.789062C19.390625 11.789062 19.578125 11.601562 19.578125 11.367188zM8.875 3.050781C8.699219 2.898438 8.433594 2.917969 8.28125 3.09375L5.652344 6.164062 4.042969 4.957031C3.855469 4.816406 3.589844 4.855469 3.453125 5.039062 3.3125 5.226562 3.351562 5.488281 3.535156 5.628906L5.460938 7.074219C5.535156 7.128906 5.625 7.15625 5.714844 7.15625 5.832031 7.15625 5.949219 7.109375 6.035156 7.011719L8.921875 3.640625C9.074219 3.464844 9.050781 3.199219 8.875 3.050781zM8.875 8.945312C8.699219 8.792969 8.433594 8.8125 8.28125 8.988281L5.652344 12.058594 4.042969 10.851562C3.855469 10.710938 3.589844 10.75 3.453125 10.933594 3.3125 11.121094 3.351562 11.386719 3.535156 11.523438L5.460938 12.96875C5.535156 13.023438 5.625 13.050781 5.714844 13.050781 5.832031 13.050781 5.949219 13.003906 6.035156 12.90625L8.921875 9.535156C9.074219 9.359375 9.050781 9.09375 8.875 8.945312zM8.28125 15.304688L5.652344 18.375 4.042969 17.167969C3.855469 17.027344 3.589844 17.066406 3.453125 17.25 3.3125 17.4375 3.351562 17.699219 3.535156 17.839844L5.460938 19.285156C5.535156 19.339844 5.625 19.367188 5.714844 19.367188 5.832031 19.367188 5.949219 19.316406 6.035156 19.21875L8.921875 15.851562C9.070312 15.675781 9.050781 15.410156 8.875 15.257812 8.699219 15.109375 8.433594 15.128906 8.28125 15.304688zM8.28125 15.304688"/>
    <path d="M 9.894531 21.894531 L 5.335938 21.894531 C 2.972656 21.894531 1.050781 19.972656 1.050781 17.609375 L 1.050781 5.125 C 1.050781 2.765625 2.972656 0.84375 5.335938 0.84375 L 17.820312 0.84375 C 20.183594 0.84375 22.105469 2.765625 22.105469 5.125 L 22.105469 15.191406 C 22.105469 15.425781 22.292969 15.613281 22.527344 15.613281 C 22.757812 15.613281 22.945312 15.425781 22.945312 15.191406 L 22.945312 5.125 C 22.945312 2.300781 20.648438 0 17.820312 0 L 5.335938 0 C 2.511719 0 0.210938 2.300781 0.210938 5.125 L 0.210938 17.609375 C 0.210938 20.4375 2.511719 22.738281 5.335938 22.738281 L 9.894531 22.738281 C 10.125 22.738281 10.316406 22.546875 10.316406 22.316406 C 10.316406 22.082031 10.128906 21.894531 9.894531 21.894531 Z M 9.894531 21.894531"/>
</svg>

<svg xmlns="http://www.w3.org/2000/svg" width="32" height="32" viewBox="0 0 24 24">
    <path d="M23.66 22.582l-4.988-8.547a.927.927 0 0 0-.813-.469.938.938 0 0 0-.816.47l-4.984 8.546a.931.931 0 0 0-.004.945.93.93 0 0 0 .816.473h9.977a.94.94 0 0 0 .813-1.418zm-.726.527c-.012.024-.04.047-.086.047H12.87c-.047 0-.074-.023-.086-.047-.015-.023-.023-.058 0-.101l4.988-8.551a.099.099 0 0 1 .086-.05c.028 0 .063.011.086.05l4.989 8.55a.103.103 0 0 1 0 .102zm0 0"/>
    <path d="M17.895 16.422a.42.42 0 0 0-.422.422v3.367a.423.423 0 0 0 .844 0v-3.367a.42.42 0 0 0-.422-.422zm0 0M17.594 21.598a.44.44 0 0 0-.121.297c0 .109.047.218.12.3a.432.432 0 0 0 .598 0 .443.443 0 0 0 .125-.3.427.427 0 0 0-.125-.297.436.436 0 0 0-.597 0zm0 0M11.578 5.05a.423.423 0 0 0 0 .844h7.578a.423.423 0 0 0 0-.844zm0 0M19.578 11.367a.42.42 0 0 0-.422-.418h-7.578a.422.422 0 0 0-.422.418c0 .235.192.422.422.422h7.578a.42.42 0 0 0 .422-.422zm0 0M8.875 3.05a.42.42 0 0 0-.594.044l-2.629 3.07-1.609-1.207a.422.422 0 0 0-.508.672l1.926 1.445a.428.428 0 0 0 .574-.062L8.922 3.64a.416.416 0 0 0-.047-.59zm0 0M8.875 8.945a.42.42 0 0 0-.594.043l-2.629 3.07-1.609-1.206a.422.422 0 0 0-.508.671l1.926 1.446a.428.428 0 0 0 .574-.063l2.887-3.37a.416.416 0 0 0-.047-.59zm0 0M8.281 15.305l-2.629 3.07-1.609-1.207a.422.422 0 0 0-.508.672l1.926 1.445a.428.428 0 0 0 .574-.066l2.887-3.367a.425.425 0 0 0-.047-.594.425.425 0 0 0-.594.047zm0 0"/>
    <path d="M9.895 21.895h-4.56a4.29 4.29 0 0 1-4.284-4.286V5.125A4.289 4.289 0 0 1 5.336.844H17.82a4.289 4.289 0 0 1 4.285 4.281v10.066a.42.42 0 1 0 .84 0V5.125A5.13 5.13 0 0 0 17.82 0H5.336A5.133 5.133 0 0 0 .21 5.125v12.484c0 2.828 2.3 5.13 5.125 5.13h4.559c.23 0 .421-.192.421-.423a.42.42 0 0 0-.421-.421zm0 0"/>
</svg>
